Страховая/img/svg/stud.svg

<svg width="102" height="113" viewBox="0 0 102 113" fill="none" xmlns="http://www.w3.org/2000/svg">
<path d="M46.8089 9.91421C70.8534 12.1708 88.7061 27.4765 93.4471 52.6508C98.1882 77.8252 79.6372 100.456 54.4413 105.201C29.2455 109.946 9.82029 67.8764 5.07926 42.702C0.338226 17.5277 19.7164 7.37158 46.8089 9.91421Z" fill="#FFF3DB"/>
<path d="M74.1999 51.0665V80.6874C66.3904 80.9698 58.9276 83.9557 53.068 89.1666L51.9999 90.1163L50.9331 89.1679C45.0724 83.9559 37.6107 80.9711 29.8 80.6887V52.3H27.3333V81.8999C27.3333 82.228 27.4641 82.54 27.6946 82.7719C27.9253 83.0037 28.2397 83.1332 28.5665 83.1332C28.5677 83.132 28.5727 83.1332 28.5764 83.1332C36.2231 83.1332 43.5798 85.9316 49.2926 91.0104L51.1796 92.6877C51.4138 92.8961 51.7074 92.9997 51.9998 92.9997C52.2922 92.9997 52.5856 92.8961 52.8187 92.6877L54.7057 91.0104C60.4197 85.9303 67.7765 83.1332 75.4232 83.1332C75.4256 83.1332 75.4294 83.1332 75.433 83.1332C75.7611 83.1332 76.0731 83.0025 76.305 82.7719C76.5368 82.5412 76.6663 82.228 76.6663 81.8999V51.0665H74.1999Z" fill="#D0935A"/>
<path d="M88.4424 42.6361L52.6758 19.2027C52.265 18.9326 51.7336 18.9339 51.324 19.2027L15.5575 42.6361C15.2097 42.863 15 43.2502 15 43.667C15 44.0839 15.2097 44.4712 15.5575 44.6993L51.3241 68.1325C51.5289 68.2658 51.7643 68.3336 51.9999 68.3336C52.2342 68.3336 52.4711 68.2658 52.6758 68.1314L88.4424 44.6981C88.7901 44.4712 88.9999 44.0827 88.9999 43.667C88.9999 43.2514 88.7901 42.863 88.4424 42.6361ZM51.9999 65.6265L18.4842 43.667L51.9999 21.7076L85.5157 43.667L51.9999 65.6265Z" fill="#D0935A"/>
<path d="M52 37.5C49.9601 37.5 48.3 39.1601 48.3 41.2C48.3 43.2399 49.9601 44.9 52 44.9C54.04 44.9 55.7 43.2399 55.7 41.2C55.7 39.1601 54.04 37.5 52 37.5ZM52 42.4333C51.3205 42.4333 50.7668 41.8796 50.7668 41.2C50.7668 40.5204 51.3205 39.9667 52 39.9667C52.6808 39.9667 53.2333 40.5204 53.2333 41.2C53.2333 41.8796 52.6808 42.4333 52 42.4333Z" fill="#D0935A"/>
<path d="M83.0959 46.1616L54.7292 39.9949L54.2039 42.4048L81.5999 48.3606V76.9665H84.0666V47.3665C84.0666 46.787 83.662 46.285 83.0959 46.1616Z" fill="#D0935A"/>
<path d="M82.8333 75.7332C80.7934 75.7332 79.1333 77.3933 79.1333 79.4332V81.8999C79.1333 82.582 79.6845 83.1332 80.3666 83.1332H85.3C85.982 83.1332 86.5333 82.582 86.5333 81.8999V79.4332C86.5333 77.3933 84.8733 75.7332 82.8333 75.7332ZM84.0667 80.6665H81.6V79.4332C81.6 78.7525 82.1526 78.1999 82.8333 78.1999C83.514 78.1999 84.0666 78.7525 84.0666 79.4332V80.6665H84.0667Z" fill="#D0935A"/>
<path d="M88.9628 91.4679L86.4961 81.6013L84.1047 82.1982L86.1865 90.533H79.4797L81.5615 82.1982L79.1701 81.6013L76.7034 91.4679C76.6109 91.8355 76.6947 92.2264 76.9279 92.5249C77.161 92.8247 77.5199 92.9997 77.8997 92.9997H87.7664C88.1462 92.9997 88.5051 92.8258 88.7382 92.5249C88.9726 92.2264 89.0553 91.8368 88.9628 91.4679Z" fill="#D0935A"/>
</svg>

<svg width="102" height="113" fill="none" xmlns="http://www.w3.org/2000/svg"><path d="M46.809 9.914c24.044 2.257 41.897 17.563 46.638 42.737 4.741 25.174-13.81 47.805-39.006 52.55-25.196 4.745-44.62-37.325-49.362-62.499C.34 17.528 19.716 7.372 46.81 9.914z" fill="#FFF3DB"/><path d="M74.2 51.066v29.621a33.6 33.6 0 00-21.132 8.48l-1.068.95-1.067-.95A33.597 33.597 0 0029.8 80.69V52.3h-2.467v29.6a1.236 1.236 0 001.234 1.233h.01a31.148 31.148 0 0120.716 7.877l1.887 1.678a1.231 1.231 0 001.639 0l1.887-1.678a31.147 31.147 0 0120.717-7.877h.01a1.235 1.235 0 001.233-1.233V51.066H74.2z" fill="#D0935A"/><path d="M88.442 42.636L52.676 19.203a1.231 1.231 0 00-1.352 0L15.557 42.636a1.234 1.234 0 000 2.063l35.767 23.433a1.24 1.24 0 001.352 0l35.766-23.434a1.232 1.232 0 000-2.062zM52 65.626L18.484 43.667 52 21.707l33.516 21.96L52 65.627z" fill="#D0935A"/><path d="M52 37.5c-2.04 0-3.7 1.66-3.7 3.7s1.66 3.7 3.7 3.7 3.7-1.66 3.7-3.7-1.66-3.7-3.7-3.7zm0 4.933a1.234 1.234 0 010-2.466 1.234 1.234 0 010 2.466z" fill="#D0935A"/><path d="M83.096 46.162l-28.367-6.167-.525 2.41L81.6 48.36v28.605h2.467v-29.6c0-.579-.405-1.081-.971-1.204z" fill="#D0935A"/><path d="M82.833 75.733c-2.04 0-3.7 1.66-3.7 3.7V81.9c0 .682.552 1.233 1.234 1.233H85.3c.682 0 1.233-.551 1.233-1.233v-2.467c0-2.04-1.66-3.7-3.7-3.7zm1.234 4.933H81.6v-1.233a1.234 1.234 0 012.467 0v1.233z" fill="#D0935A"/><path d="M88.963 91.468L86.496 81.6l-2.391.597 2.081 8.335H79.48l2.081-8.335-2.39-.597-2.468 9.867A1.231 1.231 0 0077.9 93h9.866c.38 0 .74-.174.972-.475.235-.299.317-.688.225-1.057z" fill="#D0935A"/></svg>
